!!!COM: Mozart, Wolfgang Amadeus
!!!CDT: 1756/01/27/-1791/12/05/
!!!CNT: German
!!!OTL: Piano Sonata No. 13 in B-flat major
!!!SCT1: K<sup>1</sup> 333
!!!SCT2: K<sup>6</sup> 315c
!!!OMV: Mvmt. 1
!!!OMD: Allegro
!!!ODT: ~1783///
**kern	**kern	**dynam
*staff2	*staff1	*staff1
*>[A,A,B,B]	*>[A,A,B,B]	*>[A,A,B,B]
*>norep[A,B]	*>norep[A,B]	*>norep[A,B]
*>A	*>A	*>A
*clefF4	*clefG2	*clefG2
*k[b-e-]	*k[b-e-]	*k[b-e-]
*B-:	*B-:	*B-:
*M4/4	*M4/4	*M4/4
*met(c)	*met(c)	*met(c)
*MM120	*MM120	*MM120
4r	(16gg\LL	.
.	16ff\	.
.	16ee-\	.
.	16dd\JJ	.
*clefG2	*	*
=1	=1	=1
8r	8cc\L	.
(8B-/L	8b-\J)	.
8d/	(4.b-\	.
8f/J	.	.
8d/L	.	.
8B-/	8dd\L	.
8d/	8gg\	.
8g/J)	8dd\J)	.
=2	=2	=2
8r	(4ff\	.
(8c/L	.	.
8e-/	4.ee-\)	.
8g/J	.	.
8e-/L	.	.
8c/	(16ff\LL	.
.	16gg\JJ	.
8e-/	16ff\LL	.
.	16ee-\	.
8g/J)	16dd\	.
.	16cc\JJ	.
*clefF4	*	*
=3	=3	=3
8r	4b-\	.
(8F\L	.	.
8c\	4.a/)	.
8e-\J	.	.
8c\L	.	.
8F\	(8a/L	.
8c\	8b-/	.
8e-\J)	8cc/J)	.
*clefG2	*	*
=4	=4	=4
8r	4a\ (4cc\	.
(8B-/L	.	.
8d/	4b-\ 4dd\)	.
8f/J	.	.
8d/L	8r	.
8B-/	(16ff\LL	.
.	16een\JJ	.
8d/	16gg\LL	.
.	16ff\	.
8f/J	16ee-\	.
.	16dd\JJ)	.
=5	=5	=5
8e-/L	(8dd\	.
8g/	4cc\)	.
8d/	.	.
8f/J	8b-\	.
8e-/L	(8dd\	.
8g/	4cc\)	.
8c/	.	.
8e-/J	8a/	.
=6	=6	=6
4d/) 4f/	(16b-\LL	.
.	16cc\	.
.	16b-\	.
.	16a\JJ	.
4r	16b-\LL	.
.	16cc\	.
.	16dd\	.
.	16ee-\JJ	.
2r	16een\LL	.
.	16ff\	.
.	16ee\	.
.	16ff\JJ	.
.	16gg\LL	.
.	16ff\	.
.	16ee-\	.
.	16dd\JJ)	.
=7	=7	=7
(8e-/L	(8dd\L	.
8g/	8cc\)	.
8d/	(8cc\	.
8f/J	8b-\J)	.
8e-/L	(8dd\L	.
8g/	8cc\)	.
8c/	(8cc\	.
8e-/J	8a\J)	.
=8	=8	=8
4d/) 4f/	(8b-\L	.
.	16cc\L	.
.	16dd\JJ	.
4r	16ee-\LL	.
.	16ff\	.
.	16gg\	.
.	16aa\JJ	.
2r	16bb-\LL	.
.	16ccc\	.
.	16ddd\	.
.	16eee-\JJ	.
.	8fff\L)	.
.	8fff\J	.
*clefF4	*	*
=9	=9	=9
*	*^	*
4A\	8fff/	[2ff\	.
.	4eee-/	.	.
4B-\	.	.	.
.	8ddd/	.	.
4E-\	8ddd/L	8ff\L]	.
.	8ccc/	8ee-\	.
4F\	8bb-/	8dd\	.
.	8aa/J	8cc\J	.
=10	=10	=10	=10
8r	4bb-/	4dd\	.
8BB-\L	.	.	.
8D\	4b-/	4b-\	.
8F\J	.	.	.
4B-\	4r	2r	.
4r	(16g/LL	.	.
.	16f/	.	.
.	16e-/	.	.
.	16d/JJ	.	.
*	*v	*v	*
=11	=11	=11
8r	8c/L)	.
(8BB-\L	8B-/J	.
8D\	4.B-/	.
8F\J	.	.
8D\L	.	.
8BB-\	8b-/L	.
8D\	8a/	.
8G\J)	(8g/J	.
=12	=12	=12
8r	4f/	.
(8C\L	.	.
8G\	[4en/	.
8B-\J	.	.
8G\L	16e/LL]	.
.	16g/	.
8C\	16f/	.
.	16a/JJ	.
8G\)	16g/LL	.
.	16b-/	.
8B-\J	16a/	.
.	16cc/JJ	.
=13	=13	=13
8r	16b-\LL	.
.	16g\	.
(8En\L	16een\	.
.	16cc\JJ	.
8G\	16gg\LL	.
.	16ee\	.
8c\J	16bb-\	.
.	16aa\JJ	.
8G\L	16bb-\LL	.
.	16aa\)	.
8E\	16gg\	.
.	16ff\JJ	.
8G\	16ee\LL	.
.	16dd\	.
8c\J)	16cc\	.
.	16b-\JJ	.
=14	=14	=14
8r	(16b-\LL	.
.	16a\	.
(8F\L	16dd\	.
.	16cc\JJ)	.
8A\	4cc\	.
8c\J	.	.
8A\L	4r	.
8F\	.	.
8A\	(16ddd\LL	.
.	16ccc\	.
8c\J)	16bb-\	.
.	16aa\JJ	.
=15	=15	=15
(8B-\L	4.gg\	.
8c\	.	.
8B-\	.	.
8c\J	8een\	.
8A\L	16ff'\LL)	.
.	16ccc\	.
8c\	(16bbn\	.
.	16ccc\JJ	.
8A\	16ddd\LL	.
.	16ccc\	.
8c\J	16bb-\	.
.	16aa\JJ	.
=16	=16	=16
8B-\L	8gg\)	.
8c\	(4gg\	.
8B-\	.	.
8c\J	8een\	.
8A\L	16ff'\LL)	.
.	(16ccc\	.
8c\	16bbn\	.
.	16ccc\JJ	.
8A\	16ddd\LL	.
.	16ccc\	.
8c\J	16bb-\)	.
.	16aa\JJ	.
=17	=17	=17
8B-\L	(8aa\L	.
8d\	8gg\J)	.
8B-\	8r	.
8d\J	8gg\	.
8Bn\L	(8gg\L	.
8d\	8ff\J)	.
8B\	8r	.
8d\J)	8ff\	.
*clefG2	*	*
=18	=18	=18
(4c/	16een\LL	.
.	16ff\	.
.	(16ee\	.
.	16cc\JJ	.
4d/	16ff\LL	.
.	16gg\	.
.	16ff\	.
.	16cc\JJ	.
4en/	16gg\LL	.
.	16aa\	.
.	16gg\	.
.	16cc\JJ	.
4f/)	16aa\LL	.
.	16bb-\	.
.	16aa\	.
.	16cc\JJ	.
=19	=19	=19
(8g/L	8bb-\L)	.
8cc/	8bb-\J	.
8en/	8r	.
8cc/J	8gg\	.
8f/L	(8bb-\L	.
8cc/	8aa\	.
8d/	8gg\	.
8cc/J)	8ff\J)	.
=20	=20	=20
(4c/	(16een\LL	.
.	16cc\	.
.	16bbn\	.
.	16ccc\JJ	.
4d/	16ff\LL	.
.	16cc\	.
.	16bb\	.
.	16ccc\JJ	.
4en/	16gg\LL	.
.	16cc\	.
.	16bb\	.
.	16ccc\JJ	.
4f/)	16aa\LL	.
.	16cc\	.
.	16bb\	.
.	16ccc\JJ	.
=21	=21	=21
(16g/LL	8bb-\L)	.
16cc/	.	.
16bn/	8bb-\J	.
16cc/JJ	.	.
16en/LL	8r	.
16cc/	.	.
16b/	8gg\	.
16cc/JJ	.	.
.	16ff#q/LL	.
.	16ggq/JJ	.
16f/LL	(8bb-\L	.
16cc/	.	.
16b/	8aa\)	.
16cc/JJ	.	.
16d/LL	8gg'\	.
16b/	.	.
16a/	8ffn'\J	.
16b/JJ	.	.
=22	=22	=22
4c/) 4cc/	(16een\LL	.
.	16ccc\	.
.	16gg\	.
.	16ee\JJ	.
4r	16cc/LL	.
.	16g/	.
.	16en/	.
.	16c/JJ)	.
*clefF4	*	*
4CC/ 4C/	2r	.
4r	.	.
=23	=23	=23
2FF/ 2F/	4.c/ 4.f/ 4.a/ 4.cc/	.
.	(16dd\LL	.
.	16cc\JJ	.
2r	8b-/L)	.
.	8a'/	.
.	8g'/	.
.	8f'/J	.
=24	=24	=24
4r	8f/L	.
.	8dd/J	.
2BB-\ (2B-\	4.f/ (4.dd/	.
.	8cc\)	.
4A\)	(8een\L	.
.	8ff\J)	.
=25	=25	=25
4Bn\ (4d\	(8ff\	.
.	4g/	.
4c\)	.	.
.	8a/)	.
4B\ (4d\	(8ff\	.
.	4g/	.
4c\)	.	.
.	8a/)	.
=26	=26	=26
(4d\	(4cc\	.
4en\	8.b-/L	.
.	32a/LL	.
.	32b-/JJJ	.
4f\)	8a'/L	.
.	(8a/)	.
4r	8b-/	.
.	8cc/J)	.
=27	=27	=27
8r	(8cc#\	.
(8BB-\L	4dd\	.
8D\	.	.
8G\J	16ccn\LL	.
.	16b-\JJ	.
4B-\)	8a/L	.
.	8g/	.
4r	8a/	.
.	8b-/J)	.
=28	=28	=28
8r	(8dd\	.
(8AA/L	4cc\	.
8C/	.	.
8F/J	16b-/LL	.
.	16a/JJ	.
4A\)	8g/L	.
.	8f/	.
4r	8g/	.
.	8a/J)	.
=29	=29	=29
4G\	(8cc\	.
.	4b-\)	.
4En\	.	.
.	8g/	.
4F\	(8b-\	.
.	4a/)	.
4D\	.	.
.	8f/	.
=30	=30	=30
4C/	(16en/LL	.
.	16f/	.
.	16g/	.
.	16a/JJ	.
4r	16bn\LL	.
.	16cc\	.
.	16b\	.
.	16cc\JJ	.
16C/LL	4c/)	.
(16D/	.	.
16BB-/	.	.
16C/JJ	.	.
16AA/LL	4r	.
16BB-/	.	.
16GG/	.	.
16AA/JJ	.	.
=31	=31	=31
4FF/)	4.a\ (4.cc\	.
4F\	.	.
.	16dd\LL	.
.	16cc\JJ	.
2r	8b-/L)	.
.	8a'/	.
.	8g'/	.
.	8f'/J	.
=32	=32	=32
4r	8f/L	.
.	8dd/J	.
2BB-\ (2B-\	4.f/ (4.dd/	.
.	8cc\)	.
4A\)	(8een\L	.
.	[8ff\J)	.
=33	=33	=33
4Bn\ (4d\	8ff\L]	.
.	(8g\	.
4c\)	8a\)	.
.	[8ff\J	.
4B\ (4d\	8ff\L]	.
.	(8g\	.
4c\)	8a\)	.
.	8ff'\J	.
=34	=34	=34
*	*^	*
2.r	(4cc/	(4d\ 4f\	.
.	8bn/L	4en\ 4g\	.
.	8b-/J	.	.
.	8a/L	4f\)	.
.	(8a/)	.	.
4r	8b-/	4r	.
.	8cc/J)	.	.
*	*v	*v	*
=35	=35	=35
.	(32cc#q/	.
8r	(4.dd\)	.
(8D\L	.	.
8d\)	.	.
8c'\J	16een\LL	.
.	16ff#\JJ	.
8B-'\L	16gg\LL	.
.	16aa\	.
8BB-'\	16bb-\	.
.	16aa\JJ	.
(8B-\	16gg\LL	.
.	16aa\	.
8A\J)	16ffn\	.
.	16gg\JJ	.
=36	=36	=36
8G\L	16een\LL	.
.	16ff\	.
8F\	16dd\	.
.	16ee\JJ	.
8En\	16cc\LL	.
.	16dd\	.
8C\J	16b-\	.
.	16cc\JJ	.
4F\	16a\LL	.
.	16b-\	.
.	16cc\	.
.	16dd\JJ	.
4AA/	16ee\LL	.
.	16ff\	.
.	16ee\	.
.	16ff\JJ	.
=37	=37	=37
*	*^	*
4BB-/	16gg\LL	2.r	.
.	16ff\	.	.
.	16een\	.	.
.	16dd\JJ	.	.
4B-\	16ee\LL	.	.
.	16dd\	.	.
.	16cc\	.	.
.	16b-\JJ	.	.
4c\	4a/)	.	.
4C/	(8.g/L	4en\	.
.	32f/LL	.	.
.	32g/JJJ	.	.
=38	=38	=38	=38
16F\LL	4f\)	4f/	.
16c\	.	.	.
16Bn\	.	.	.
16c\JJ	.	.	.
16d\LL	2.r	4r	.
16c\	.	.	.
16B\	.	.	.
16c\JJ	.	.	.
16B-\LL	.	2r	.
16c\	.	.	.
16A\	.	.	.
16c\JJ	.	.	.
16G\LL	.	.	.
16c\	.	.	.
16F\	.	.	.
16c\JJ	.	.	.
*	*v	*v	*
=39	=39	=39
16En\LL	(8bb-\L	.
16c\	.	.
16G\	8gg\)	.
16c\JJ	.	.
16B-\LL	8een'\	.
16c\	.	.
16B-\	8ee'\J	.
16c\JJ	.	.
16E\LL	(8bb-\L	.
16c\	.	.
16G\	8gg\)	.
16c\JJ	.	.
16B-\LL	8ee'\	.
16c\	.	.
16B-\	8ee'\J	.
16c\JJ	.	.
=40	=40	=40
16A\LL	8ff'\L	.
16c\	.	.
16En\	8gg'\	.
16c\JJ	.	.
16F\LL	8aa'\	.
16c\	.	.
16G\	8bb-'\J	.
16c\JJ	.	.
16G#\LL	(8bbn\L	.
16c\	.	.
16A\	8ccc\)	.
16c\JJ	.	.
16G#\LL	(8bb\	.
16c\	.	.
16A\	8ccc\J)	.
16c\JJ	.	.
=41	=41	=41
16En\LL	(8bb-\L	.
16c\	.	.
16Gn\	8gg\)	.
16c\JJ	.	.
16B-\LL	8een'\	.
16c\	.	.
16B-\	8ee'\J	.
16c\JJ	.	.
16E\LL	(8bb-\L	.
16c\	.	.
16G\	8gg\)	.
16c\JJ	.	.
16B-\LL	8ee'\	.
16c\	.	.
16B-\	8ee'\J	.
16c\JJ	.	.
=42	=42	=42
16A\LL	8ff'\L	.
16c\	.	.
16En\	8gg'\	.
16c\JJ	.	.
16F\LL	8aa'\	.
16c\	.	.
16G\	8bb-'\J	.
16c\JJ	.	.
16G#\LL	(8bbn\L	.
16c\	.	.
16A\	8ccc\)	.
16c\JJ	.	.
16G#\LL	(8bb\	.
16c\	.	.
16A\	8ccc\J)	.
16c\JJ	.	.
=43	=43	=43
8r	2dd\ 2ddd\	p
(8B-\L	.	.
8A\	.	.
8B-\J)	.	.
8r	2en/ 2een/	.
(8c\L	.	.
8Bn\	.	.
8c\J)	.	.
=44	=44	=44
8r	2b-\ 2bb-\	.
(8c#\L	.	.
8Bn\	.	.
8c#\J)	.	.
8r	2a\ 2aa\	.
(8d\L	.	.
8c#\	.	.
8d\J)	.	.
=45	=45	=45
*^	*	*
4r	4r	(16aa\LL	.
.	.	16gg\	.
.	.	16bb-\	.
.	.	16aa\JJ	.
*clefG2	*clefG2	*	*
4g/	4B-\	16ccc\LL	.
.	.	16bb-\	.
.	.	16aa\	.
.	.	16gg\JJ	.
(4a/	2cn\	4ff\	.
4b-/)	.	4een\)	.
*v	*v	*	*
=46	=46	=46
2f/ 2a/	8r	.
.	(8ff\L	p
.	8een\	.
.	8ff\J)	.
2f/ 2a/	8r	.
.	(8ee-\L	.
.	8dd\	.
.	8ee-\J)	.
*clefF4	*	*
=47	=47	=47
2F#\ 2A\ 2c\	8r	.
.	8dd\L	.
.	8ddd\	.
.	8ddd'\J	.
2G\ 2B-\	8r	.
.	8ddd\L	.
.	8dd\	.
.	8dd'\J	.
=48	=48	=48
2En\ 2G\ 2B-\	8r	.
.	(8cc\L	.
.	8ccc\)	.
.	8ccc'\J	.
2Fn\ 2A\	8r	.
.	(8ccc\L	.
.	8cc\)	.
.	8cc'\J	.
=49	=49	=49
*^	*^	*
4r	4r	(8cc#\L	2.r	.
.	.	8dd\	.	.
4G/	4BBn\	8een\	.	.
.	.	8ff\J)	.	.
(4A/	2C\	(4f/	.	.
4B-/	.	8a/L	4en\	.
.	.	8g/J	.	.
*	*	*v	*v	*
=50	=50	=50	=50
8A/)	8F\	8f/)	.
8r	8r	(16f/LL	.
.	.	16a/JJ	.
(8en/L	4r	16g/LL	.
.	.	16b-/	.
8e-/J	.	16a/	.
.	.	16cc/JJ	.
8d/)	8F\	8b-'/	.
8r	8r	(16f/LL)	.
.	.	16a/JJ	.
(8en/L	4r	16g/LL	.
.	.	16b-/	.
8e-/J	.	16a/	.
.	.	16cc/JJ	.
=51	=51	=51	=51
8d/)	8F\	8b-'/)	.
8r	8r	(16f/LL	.
.	.	16a/JJ	.
2.r	(8en\L	16g/LL	.
.	.	16b-/	.
.	8e-\J	16a/	.
.	.	16cc/JJ	.
.	8d\L)	16b-\LL	.
.	.	16dd\	.
.	8A\	16cc\	.
.	.	16ee-\JJ	.
.	8B-\	16dd\LL	.
.	.	16ff\	.
.	8G\J	16een\	.
.	.	16gg\JJ	.
*v	*v	*	*
=52	=52	=52
4A\	16ff\LL	.
.	16gg\	.
.	16aa\	.
.	16gg\JJ	.
4r	16ff\LL	.
.	16ee-\	.
.	16dd\	.
.	16cc#\JJ	.
4B-\	16dd\LL	.
.	16ccn\	.
.	16b-\	.
.	16a\JJ	.
4r	16g/LL	.
.	16f/	.
.	16en/	.
.	16d/JJ	.
=53	=53	=53
(8C\L	16c/LL	.
.	16f/	.
8F\	16a/	.
.	16cc/JJ)	.
8A\	8ff\	.
8F\J	8f'/ 8a'/	.
8C\L	(8a/ 8cc/L	.
8G\	8g/) 8b-/	.
8B-\	8f'/ 8a'/	.
8G\J)	8en'/ 8g'/J	.
=54	=54	=54
*^	*	*
8r	8F\ 8A\	8f/	.
(8f/L	8r	(16ff\LL	.
.	.	16aa\JJ	.
8en/	4r	16gg\LL	.
.	.	16bb-\	.
8e-/J	.	16aa\	.
.	.	16ccc\JJ	.
8d/)	8F\	8bb-'\)	.
(8f/L	8r	(16ff\LL	.
.	.	16aa\JJ	.
8en/	4r	16gg\LL	.
.	.	16bb-\	.
8e-/J	.	16aa\	.
.	.	16ccc\JJ	.
=55	=55	=55	=55
8d/)	8F\	8bb-'\)	.
8r	(8f\L	(16ff\LL	.
.	.	16aa\JJ	.
2.r	8en\	16gg\LL	.
.	.	16bb-\	.
.	8e-\J	16aa\	.
.	.	16ccc\JJ	.
.	8d\L)	16bb-\LL	.
.	.	16ff\	.
.	8A\	16ccc\	.
.	.	16ff\JJ	.
.	8B-\	16ddd\LL	.
.	.	16ff\	.
.	8G\J	16eeen\	.
.	.	16ff\JJ)	.
*v	*v	*	*
=56	=56	=56
4AA\ 4A\	(16fff\LL	.
.	16eeen\	.
.	16ddd\	.
.	16ccc\JJ	.
4r	16bb-\LL	.
.	16aa\	.
.	16gg\	.
.	16ff\JJ	.
4BB-\ 4B-\	16ddd\LL	.
.	16ccc\	.
.	16bb-\	.
.	16aa\JJ	.
4r	16gg\LL	.
.	16ff\	.
.	16een\	.
.	16dd\JJ	.
=57	=57	=57
(16C\LL	8cc\L)	.
16A\	.	.
16F\	8ccc\	.
16A\JJ	.	.
16C\LL	8ccc\	.
16A\	.	.
16F\	8ccc\J	.
16A\JJ	.	.
16C\LL	(16ccc\LL	.
16A\	16aa\	.
16F\	16ff\	.
16A\JJ	16cc\JJ	.
16C\LL	16ff\LL	.
16A\	16cc\	.
16F\	16a\	.
16A\JJ	16f\JJ)	.
=58	=58	=58
16C\LL	1g	.
16B-\	.	.
16En\	.	.
16B-\JJ	.	.
16C\LL	.	.
16B-\	.	.
16E\	.	.
16B-\JJ	.	.
16C\LL	.	.
16B-\	.	.
16E\	.	.
16B-\JJ	.	.
16C\LL	.	.
16B-\	.	.
16E\	.	.
16B-\JJ	.	.
=59	=59	=59
.	(16fq/LL	.
.	16gq/JJ)	.
8F\)	(8f\L	.
(8f\L	8ff\J)	.
8en\	8r	.
8f\J	(8ff\	.
8g\L	8een\L	.
8f\	8ff\	.
8e\	8gg\	.
8e-\J)	8aa\J	.
=60	=60	=60
(8d\L	16bb-\LL	.
.	16ccc\	.
8F\	16ddd\	.
.	16ccc\JJ	.
8d-\	16bb-\LL	.
.	16aa-\	.
8F\J	16gg\	.
.	16ff\JJ	.
8c\L	16een\LL	.
.	16ff\	.
8F\	16gg\	.
.	16ff\JJ	.
8en\	16ee\LL	.
.	16dd\	.
8F\J	16cc\	.
.	16b-\JJ	.
=61	=61	=61
8f\L)	8an/L)	.
(8F\	8a'/J	.
8En\	8r	.
8F\J	(8f/	.
8G\L	8en/L	.
8F\	8f/	.
8E\	8g/	.
8E-\J	8a/J	.
=62	=62	=62
4D\)	8b-\L)	.
.	(8b-\	.
.	16aq/LL	.
.	16b-q/JJ	.
4BB-/	8cc\	.
.	8dd\J)	.
4C/	8b-\ (8dd\L	.
.	8a\ 8cc\J)	.
4C/	8r	.
.	8B-/ 8en/	.
=63	=63	=63
4F\	(2B-/ (2g/	.
4C/	.	.
4FF/	4A/) 4f/)	.
=:|!|:	=:|!|:	=:|!|:
*>B	*>B	*>B
4r	(16dd\LL	.
.	16cc\	.
.	16b-\	.
.	16a\JJ	.
=64	=64	=64
8r	8g/L	.
(8FF/L	8f/J)	.
8AA/	4.f/	.
8C/J	.	.
8AA/L	.	.
8FF/	(8ff\L	.
8AA/	8gg\	.
8C/J)	8aa\J)	.
=65	=65	=65
.	(32eenq/	.
8r	(8.bb-\L)	.
(8G\L	.	.
.	16gg\Jk	.
8B-\	4een\)	.
8en\J	.	.
8B-\L	4r	.
8G\	.	.
8B-\	(16cc/LL	.
.	16b-/	.
8e\J)	16a/	.
.	16g/JJ	.
=66	=66	=66
8r	8f/L	.
(8GG/L	8en/J)	.
8BB-/	4.e/	.
8En/J	.	.
8BB-/L	.	.
8GG/	(8gg\L	.
8BB-/	8aa\	.
8E/J)	8bb-\J)	.
=67	=67	=67
.	(32ff#q/	.
8r	(8.ccc\L)	.
(8A\L	.	.
.	16aa\Jk	.
8c\	4ff#\)	.
8e-\J	.	.
8c\L	8r	.
8A\	(8aa\L	.
8c\	8bb-\	.
8e-\J)	8ccc\J)	.
=68	=68	=68
.	(32ggq/	.
8r	(8.ddd\L)	.
(8BB-\L	.	.
.	16bb-\Jk	.
8D\	8gg\)	.
8G\J)	8r	.
.	(32ee-q/	.
8r	(8.bb-\L)	.
(8C\L	.	.
.	16gg\Jk	.
8G\	8een\)	.
8B-\J)	8r	.
=69	=69	=69
.	(32b-q/	.
8r	(8.ffn\L)	.
(8D\L	.	.
.	16dd\Jk	.
8F\	4bn\)	.
8A-\J	.	.
8F\L	8r	.
8D\	8b\L	.
8F\	8b\	.
8A-\J)	8b\J	.
=70	=70	=70
2C\ 2An\	(16cc\LL	.
.	16aa\	.
.	16ff\	.
.	16cc\JJ	.
.	16a\LL	.
.	16ff\	.
.	16cc\	.
.	16a\JJ)	.
4c\	(8a/ 8cc/L	.
.	8g/) 8b-/	.
4C/	8f'/ 8a'/	.
.	8en'/ 8g'/J	.
=71	=71	=71
16F\LL	4f/	.
16c\	.	.
16A-\	.	.
16c\JJ	.	.
16F\LL	4r	.
16c\	.	.
16A-\	.	.
16c\JJ	.	.
16F\LL	16r	.
16c\	(16f/LL	.
16A-\	16g/	.
16c\JJ	16a-/JJ	.
16F\LL	16b-\LL	.
16c\	16cc\	.
16A-\	16dd\	.
16c\JJ	16een\JJ	.
=72	=72	=72
16F\LL	16ff\LL	.
16c\	16cc\	.
16A-\	16aa-\	.
16c\JJ	16gg\JJ	.
16F\LL	16ff\LL	.
16c\	16cc\	.
16A-\	16aa-\	.
16c\JJ	16gg\JJ	.
16F\LL	16ff\LL	.
16d\	16gg\	.
16A-\	16ee-\	.
16d\JJ	16ff\JJ	.
16F\LL	16dd\LL	.
16d\	16ee-\	.
16A-\	16cc\	.
16d\JJ	16dd\JJ	.
=73	=73	=73
16G\LL	8bn\)	.
16f\	.	.
16d\	4fff\	.
16f\JJ	.	.
16G\LL	.	.
16f\	.	.
16d\	4eee-\	.
16f\JJ	.	.
16G\LL	.	.
16f\	.	.
16d\	4ddd\	.
16f\JJ	.	.
16G\LL	.	.
16f\	.	.
16d\	[8ccc\	.
16f\JJ	.	.
=74	=74	=74
16G\LL	8ccc\]	.
16f\	.	.
16d\	4bbn\	.
16f\JJ	.	.
16G\LL	.	.
16f\	.	.
16d\	4aa-\	.
16f\JJ	.	.
16G\LL	.	.
16d\	.	.
16Bn\	4gg\	.
16d\JJ	.	.
16G\LL	.	.
16d\	.	.
16B\	8ff\	.
16d\JJ	.	.
=75	=75	=75
16G\LL	(8ff\L	.
16en\	.	.
16c\	8een\J)	.
16e\JJ	.	.
16G\LL	4ee-\	.
16e-\	.	.
16c\	.	.
16e-\JJ	.	.
16G\LL	16r	.
16e-\	(16ee-\LL	.
16c\	16dd\	.
16e-\JJ	16ee-\JJ	.
16G\LL	16ff\LL	.
16e-\	16ee-\	.
16c\	16dd\	.
16e-\JJ	16ee-\JJ	.
=76	=76	=76
16G-\LL	8.gg-\L)	.
16e-\	.	.
16B-\	.	.
16e-\JJ	16ee-\Jk	.
16G-\LL	(8.ee-\L	.
16e-\	.	.
16B-\	.	.
16e-\JJ	32dd\LL	.
.	32ee-\JJJ	.
16G-\LL	8.bb-\L)	.
16e-\	.	.
16B-\	.	.
16e-\JJ	16ee-\Jk	.
16G-\LL	(8.ee-\L	.
16e-\	.	.
16B-\	.	.
16e-\JJ	32dd\LL	.
.	32ee-\JJJ	.
=77	=77	=77
16F\LL	8aan'\L)	.
16e-\	.	.
16c\	8ccc'\J	.
16e-\JJ	.	.
16F\LL	([4eee-\	.
16e-\	.	.
16c\	.	.
16e-\JJ	.	.
16F\LL	16eee-\LL]	.
16e-\	16fff\	.
16c\	16ddd\	.
16e-\JJ	16eee-\JJ	.
16F\LL	16ccc\LL	.
16e-\	16ddd\	.
16c\	16bb-\	.
16e-\JJ	16ccc\JJ	.
=78	=78	=78
16F\LL	16aa\LL	.
16e-\	16bb-\	.
16c\	16ccc\	.
16e-\JJ	16bb-\JJ	.
16F\LL	16aa\LL	.
16e-\	16bb-\	.
16c\	16ccc\	.
16e-\JJ	16ddd\JJ	.
16F\LL	16eee-\LL	.
16c\	16ddd\	.
16A\	16ccc\	.
16c\JJ	16bb-\JJ	.
16F\LL	16aa\LL	.
16c\	16gg\	.
16A\	16ff\	.
16c\JJ	16ee-\JJ)	.
=79	=79	=79
16F#\LL	(8ee-\L	.
16c\	.	.
16A\	8dd\J)	.
16c\JJ	.	.
16F#\LL	4.dd\	.
16c\	.	.
16A\	.	.
16c\JJ	.	.
16F#\LL	.	.
16c\	.	.
16A\	(8dd\L	.
16c\JJ	.	.
16F#\LL	8ddd\)	.
16d\	.	.
16A\	([8ccc\J	.
16d\JJ	.	.
=80	=80	=80
16G\LL	8ccc\]	.
16d\	.	.
16B-\	4bb-\	.
16d\JJ	.	.
16Fn\LL	.	.
16d\	.	.
16A\	[8aa\	.
16d\JJ	.	.
16En\LL	16aa\LL]	.
16d\	16gg\	.
16G\	16bb-\	.
16d\JJ	16aa\JJ	.
16E-\LL	16ccc\LL	.
16c#\	16bb-\	.
16G\	16aa\	.
16c#\JJ	16gg\JJ	.
=81	=81	=81
4D\ 4d\	16ff#\LL	.
.	16dd\	.
.	16ddd\	.
.	16ccc#\JJ	.
4r	16ddd\LL	.
.	16ccc#\	.
.	16ddd\	.
.	16ccc#\JJ	.
4r	16ddd\LL	.
.	16eee-\	.
.	16cccn\	.
.	16ddd\JJ	.
*clefG2	*	*
(4d/ 4f#/	16bb-\LL	.
.	16ccc\	.
.	16aa\	.
.	16bb-\JJ	.
=82	=82	=82
4e-/) 4g/	16gg\LL	.
.	16aa\	.
.	16ffn\	.
.	16gg\JJ	.
4r	16ee-\LL	.
.	16ff\	.
.	16dd\	.
.	16ee-\JJ	.
4r	8cc#\L	.
.	8bb-\	.
*clefF4	*	*
4E-\ (4c#\	8aa\	.
.	8gg\J	.
=83	=83	=83
4D\ 4d\)	16ff#\LL)	.
.	(16cc#\	.
.	16dd\	.
.	16cc#\JJ	.
4r	16dd\LL	.
.	16cc#\	.
.	16dd\	.
.	16cc#\JJ	.
4r	16dd\LL	.
.	16ee-\	.
.	16ccn\	.
.	16dd\JJ	.
4D\ (4cn\	16b-\LL	.
.	16cc\	.
.	16a\	.
.	16b-\JJ	.
=84	=84	=84
4E-\ 4B-\)	16g/LL	.
.	16a/	.
.	16fn/	.
.	16g/JJ	.
4r	16e-/LL	.
.	16f/	.
.	16d/	.
.	16e-/JJ	.
4r	8c#/L	.
.	8g/	.
4E-\ (4G\	8b-/	.
.	8c#/J	.
=85	=85	=85
8D\ 8F#\)	8d/L	.
8r	8dd/J)	.
8D\ 8G\ 8B-\	8r	.
8r	8dd\	.
8D\ 8F#\ 8A\	8r	.
8r	8dd\	.
8D\ 8G\ 8B-\	8r	.
8r	8dd\	.
=86	=86	=86
4D\ 4F#\ 4A\	8r	.
.	(8dd\L	.
4r	8cc#\	.
.	8dd\J	.
2r	8cc#\L	.
.	8dd\	.
.	8cc#\	.
.	8dd\J	.
*clefG2	*	*
=87	=87	=87
8r	4ffn\	.
8c/ 8fn/ 8a/L	.	.
8c/ 8f/ 8a/	4ee-\)	.
8c/ 8f/ 8a/J	.	.
4c/ 4f/ 4a/	16r	.
.	(16ee-\LL	.
.	16dd\	.
.	16ee-\JJ	.
4r	16ff\LL	.
.	16ee-\	.
.	16dd\	.
.	16ee-\JJ	.
=88	=88	=88
8r	4bb-\	.
8f/ 8cc/ 8ee-/L	.	.
8f/ 8cc/ 8ee-/	4aa\)	.
8f/ 8cc/ 8ee-/J	.	.
4f/ 4cc/ 4ee-/	16r	.
.	(16aa\LL	.
.	16gg\	.
.	16aa\JJ	.
4r	16bb-\LL	.
.	16aa\	.
.	16gg\	.
.	16aa\JJ	.
=89	=89	=89
8r	4fff\	.
(8f\L	.	.
8cc\	4eee-\)	.
8ee-\J	.	.
2g-/)	16r	.
.	(16eee-\LL	.
.	16ddd\	.
.	16eee-\JJ	.
.	16fff\LL	.
.	16eee-\	.
.	16ddd-\	.
.	16ccc\JJ	.
=90	=90	=90
8r	4bb-\	.
(8f\L	.	.
8cc\	4aa\)	.
8ee-\J	.	.
2g-/)	16r	.
.	(16eee-\LL	.
.	16dddn\	.
.	16eee-\JJ	.
.	16fff\LL	.
.	16eee-\	.
.	16ddd-\	.
.	16ccc\JJ	.
=91	=91	=91
*^	*	*
8f/	4r	16bb-\LL	.
.	.	16aa\	.
8r	.	16eee-\	.
.	.	16dddn\JJ	.
2cc/ 2ee-/	(4g-\	16fff\LL	.
.	.	16eee-\	.
.	.	16ddd-\	.
.	.	16ccc\JJ	.
.	4f\)	16bb-\LL	.
.	.	16aa\	.
.	.	16eee-\	.
.	.	16dddn\JJ	.
[4cc/ [4ee-/	(4g-\	16fff\LL	.
.	.	16eee-\	.
.	.	16ddd-\	.
.	.	16ccc\JJ	.
*v	*v	*	*
=92	=92	=92
4f/) 4cc/] 4ee-/]	16bb-\LL	.
.	16aa\	.
.	16ccc\	.
.	16bbn\JJ	.
4r	16dddn\LL	.
.	16ccc\	.
.	16bb-\	.
.	16aa\JJ	.
2r	16gg\LL	.
.	16ff\	.
.	16gg\	.
.	16ff#\JJ	.
.	16aa\LL	.
.	16gg\	.
.	16ffn\	.
.	16ee-\JJ	.
=93	=93	=93
1r	8dd\L	.
.	8cc\)	.
.	8dd\	.
.	8ee-\J	.
.	8een\L	.
.	8ff\J	.
.	(16gg\LL	.
.	16ff\	.
.	16ee-\	.
.	16dd\JJ	.
=94	=94	=94
8r	8cc\L)	.
(8B-/L	8b-\J	.
8d/	(4.b-\	.
8f/J	.	.
8d/L	.	.
8B-/	8dd\L	.
8d/	8gg\	.
8g/J)	8dd\J)	.
=95	=95	=95
8r	(4ff\	.
(8c/L	.	.
8e-/	4.ee-\)	.
8g/J	.	.
8e-/L	.	.
8c/	(16ff\LL	.
.	16gg\JJ	.
8e-/	16ff\LL	.
.	16ee-\	.
8g/J)	16dd\	.
.	16cc\JJ	.
*clefF4	*	*
=96	=96	=96
8r	4b-\	.
(8F\L	.	.
8c\	4.a/)	.
8e-\J	.	.
8c\L	.	.
8F\	(8a/L	.
8c\	8b-/	.
8e-\J)	8cc/J)	.
*clefG2	*	*
=97	=97	=97
8r	4a\ (4cc\	.
(8B-/L	.	.
8d/	4b-\ 4dd\)	.
8f/J	.	.
8d/L	8r	.
8B-/	(16ff\LL	.
.	16een\JJ	.
8d/	16gg\LL	.
.	16ff\	.
8f/J	16ee-\	.
.	16dd\JJ)	.
=98	=98	=98
8e-/L	(8dd\	.
8g/	4cc\)	.
8d/	.	.
8f/J	8b-\	.
8e-/L	(8dd\	.
8g/	4cc\)	.
8c/	.	.
8e-/J	8a/	.
=99	=99	=99
4d/) 4f/	(16b-\LL	.
.	16cc\	.
.	16b-\	.
.	16a\JJ	.
4r	16b-\LL	.
.	16cc\	.
.	16dd\	.
.	16ee-\JJ	.
2r	16een\LL	.
.	16ff\	.
.	16ee\	.
.	16ff\JJ	.
.	16gg\LL	.
.	16ff\	.
.	16ee-\	.
.	16dd\JJ)	.
=100	=100	=100
(8e-/L	(8dd\L	.
8g/	8cc\)	.
8d/	(8cc\	.
8f/J	8b-\J)	.
8e-/L	(8dd\L	.
8g/	8cc\)	.
8c/	(8cc\	.
8e-/J	8a\J)	.
=101	=101	=101
4d/) 4f/	(8b-\L	.
.	16cc\L	.
.	16dd\JJ	.
4r	16ee-\LL	.
.	16ff\	.
.	16gg\	.
.	16aa\JJ	.
2r	16bb-\LL	.
.	16ccc\	.
.	16ddd\	.
.	16eee-\JJ)	.
.	8fff\L	.
.	8fff\J	.
*clefF4	*	*
=102	=102	=102
*	*^	*
4A\	(8fff/	[2ff\	.
.	4eee-/)	.	.
4B-\	.	.	.
.	8ddd/	.	.
4E-\	8ddd/L	8ff\L]	.
.	8ccc/	8ee-\	.
4F\	8bb-/	8dd\	.
.	8aa/J	8cc\J	.
=103	=103	=103	=103
8r	4bb-/	4dd\	.
8BB-\L	.	.	.
8D\	4b-/	4b-\	.
8F\J	.	.	.
4B-\	4r	2r	.
4r	(16g/LL	.	.
.	16f/	.	.
.	16e-/	.	.
.	16d/JJ	.	.
*	*v	*v	*
=104	=104	=104
8r	8c/L	.
(8BB-\L	8B-/J)	.
8D\	4.B-/	.
8F\J	.	.
8D\L	.	.
8BB-\	8b-'\L	.
8D\	(8b-\	.
8F\J)	8cc\J	.
=105	=105	=105
8r	8b-/L	.
(8BB-\L	8a/J)	.
8D\	4.a-/	.
8F\J	.	.
8D\L	.	.
8BB-\	8a-/L	.
8D\	8a-/	.
8F\J)	8a-/J	.
=106	=106	=106
8r	(16aa-\LL	.
.	16bb-\	.
(8BB-\L	16gg\	.
.	16aa-\JJ	.
8D\	16ff\LL	.
.	16gg\	.
8F\J	16ee-\	.
.	16ff\JJ	.
8A-\L	16dd\LL	.
.	16ee-\	.
8F\	16cc\	.
.	16dd\JJ	.
8D\	16b-\LL	.
.	16cc\	.
8BB-\J)	16a-\	.
.	16b-\JJ	.
=107	=107	=107
8r	8a-/L	.
(8BBn\L	8g/J)	.
8D\	4.g/	.
8F\J	.	.
8G\L	.	.
8F\	8gg\L	.
8D\	(8gg\	.
8BB\J)	8ff\J)	.
*clefG2	*	*
=108	=108	=108
8r	(8ff\L	.
(8B-/L	8een\J)	.
8d-/	4.ee\	.
8en/J	.	.
4g/)	.	.
.	8ddd-\L	.
4r	(8ddd-\	.
.	8ee\J	.
=109	=109	=109
8r	8gg\L	.
(8An/L	8ff\J)	.
8c/	(4.ff\	.
8f/J	.	.
4an/)	.	.
.	8ff#\L	.
4r	8gg\	.
.	8ee-\J	.
=110	=110	=110
8r	8cc#\L	.
(8B-/L	8ddn\J)	.
8dn/	4dd\	.
8f/J	.	.
4b-/)	8r	.
.	(8ffn\	.
4r	16gg\LL	.
.	16ff\	.
.	16ee-\	.
.	16dd\JJ	.
=111	=111	=111
8e-/L	4.ccn\	.
8f/	.	.
(8e-/	.	.
8f/J	8a/	.
8d/L	16b-\LL	.
.	(16ff\)	.
8f/	16een\	.
.	16ff\JJ	.
8d/	16gg\LL	.
.	16ff\	.
8f/J	16ee-\	.
.	16dd\JJ	.
=112	=112	=112
8e-/L	(8cc\	.
8f/	4cc\)	.
8e-/	.	.
8f/J	8a/	.
8d/L	16b-'\LL	.
.	(16ff\)	.
8f/	16een\	.
.	16ff\JJ	.
8d/	16gg\LL	.
.	16ff\	.
8f/J	16ee-\	.
.	16dd\JJ)	.
=113	=113	=113
8e-/L	(8dd\L	.
8g/	8cc\J)	.
8e-/	8r	.
8g/J	8cc\	.
8en/L	(8cc\L	.
8g/	8b-\J)	.
8e/	8r	.
8g/J)	8b-\	.
*clefF4	*	*
=114	=114	=114
(4F\	(16a/LL	.
.	16b-/	.
.	16a/	.
.	16f/JJ	.
4G\	16b-/LL	.
.	16cc/	.
.	16b-/	.
.	16f/JJ	.
4A\	16cc/LL	.
.	16dd/	.
.	16cc/	.
.	16f/JJ	.
4B-\)	16dd/LL	.
.	16ee-/	.
.	16dd/	.
.	16f/JJ	.
=115	=115	=115
(8c\L	8ee-'\L)	.
8f\	8ee-'\J	.
8A\	8r	.
8f\J	(8cc\	.
8B-\L	8ee-\L	.
8f\	8dd\	.
8G\	8cc\	.
8f\J)	8b-\J)	.
=116	=116	=116
(4F\	(16a\LL	.
.	16f\	.
.	16een\	.
.	16ff\JJ	.
4G\	16b-\LL	.
.	16f\	.
.	16ee\	.
.	16ff\JJ	.
4A\	16cc\LL	.
.	16f\	.
.	16ee\	.
.	16ff\JJ	.
4B-\)	16dd\LL	.
.	16f\	.
.	16ee\	.
.	16ff\JJ	.
=117	=117	=117
(16c\LL	8ee-'\L)	.
16f\	.	.
16en\	8ee-'\J	.
16f\JJ	.	.
16A\LL	8r	.
16f\	.	.
16e\	8cc\	.
16f\JJ	.	.
.	16bnq/LL	.
.	16ccq/JJ	.
16B-\LL	(8ee-\L	.
16f\	.	.
16e\	8dd\)	.
16f\JJ	.	.
16G\LL	8cc'\	.
16e\	.	.
16d\	8b-'\J	.
16e\JJ)	.	.
=118	=118	=118
4F\ 4f\	(16a\LL	.
.	16ff\	.
.	16cc\	.
.	16a\JJ	.
4r	16f/LL	.
.	16c/	.
.	16A/	.
.	16F/JJ)	.
4FFF/ 4FF/	2r	.
4r	.	.
=119	=119	=119
2BBB-\ 2BB-\	4.F/ 4.B-/ 4.d/ 4.f/	.
.	(16g/LL	.
.	16f/JJ	.
2r	8e-/L)	.
.	8d'/	.
.	8c'/	.
.	8B-'/J	.
=120	=120	=120
4r	(8B-/L	.
.	8g/J)	.
2EE-/ (2E-/	4.B-/ (4.g/	.
.	8f/)	.
4D/)	(8a/L	.
.	8b-/J)	.
=121	=121	=121
4En\ (4G\	(8b-/	.
.	4c/	.
4F\)	.	.
.	(8d/)	.
4E\ (4G\	8b-/	.
.	4c/	.
4F\)	.	.
.	8d/)	.
=122	=122	=122
(4G\	(4f/	.
4A\	8.e-/L	.
.	32d/LL	.
.	32e-/JJJ	.
4B-\)	8d/L)	.
.	(8d/	.
4r	8e-/	.
.	8f/J)	.
=123	=123	=123
8r	(8f#/	.
(8EE-/L	4g/	.
8GG/	.	.
8C/J	16fn/LL	.
.	16e-/JJ	.
4E-\)	8d/L	.
.	8c/	.
4r	8d/	.
.	8e-/J)	.
=124	=124	=124
8r	(8g/	.
(8DD/L	4f/	.
8FF/	.	.
8BB-/J	16e-/LL	.
.	16d/JJ	.
4D\)	8c/L	.
.	8B-/	.
4r	8c/	.
.	8d/J)	.
=125	=125	=125
4C/	(8f/	.
.	4e-/)	.
4AA/	.	.
.	(8c/	.
4BB-/	8e-/	.
.	4d/)	.
4GG/	.	.
.	8B-/	.
=126	=126	=126
4FF/	(16A/LL	.
.	16B-/	.
.	16Bn/	.
.	16c/JJ	.
4r	16c#/LL	.
.	16d/	.
.	16e-/	.
.	16en/JJ	.
(16F\LL	4f/)	.
16G\	.	.
16E-\	.	.
16F\JJ	.	.
16D\LL	4r	.
16E-\	.	.
16C\	.	.
16D\JJ)	.	.
=127	=127	=127
4BB-/	4.f\ 4.b-\ 4.dd\ 4.ff\	.
4B-\	.	.
.	(16gg\LL	.
.	16ff\JJ	.
2r	8ee-\L)	.
.	8dd'\	.
.	8cc'\	.
.	8b-'\J	.
=128	=128	=128
4r	(8b-\L	.
.	8gg\J)	.
2E-\ (2e-\	4.b-\ (4.gg\	.
.	8ff\)	.
4d\)	(8aa\L	.
.	[8bb-\J)	.
*clefG2	*	*
=129	=129	=129
(4en/ 4g/	8bb-\L]	.
.	(8cc\	.
4f/)	8dd\)	.
.	[8bb-\J	.
(4e/ 4g/	8bb-\L]	.
.	(8cc\	.
4f/)	8dd\)	.
.	8bb-\J	.
=130	=130	=130
(4g/ 4b-/	(4ff\	.
4a/ 4cc/	8een\L	.
.	8ee-\J	.
4b-\)	8dd\L)	.
.	(8dd\	.
4r	8ee-\	.
.	8ff\J)	.
*clefF4	*	*
=131	=131	=131
8r	4.gg\	.
(8G\L	.	.
8g\)	.	.
8f'\J	(16aa\LL	.
.	16bbn\JJ	.
8e-'\L	16ccc\LL	.
.	16ddd\	.
8E-'\	16eee-\	.
.	16ddd\JJ	.
(8e-\	16ccc\LL	.
.	16ddd\	.
8d\J)	16bb-\	.
.	16ccc\JJ	.
=132	=132	=132
8c\L	16aa\LL	.
.	16bb-\	.
8B-\	16gg\	.
.	16aa\JJ	.
8A\	16ff\LL	.
.	16gg\	.
8F\J	16ee-\	.
.	16ff\JJ	.
4B-\	16dd\LL	.
.	16ee-\	.
.	16ff\	.
.	16gg\JJ	.
4D\	16aa\LL	.
.	16bb-\	.
.	16aa\	.
.	16bb-\JJ	.
=133	=133	=133
*	*^	*
4E-\	16ccc\LL	2.r	.
.	16bb-\	.	.
.	16aa\	.	.
.	16gg\JJ	.	.
4e-\	16aa\LL	.	.
.	16gg\	.	.
.	16ff\	.	.
.	16ee-\JJ	.	.
4f\	4dd\)	.	.
4F\	4a\	(8.cc/L	.
.	.	32b-/LL	.
.	.	32cc/JJJ	.
*clefG2	*	*	*
*	*v	*v	*
=134	=134	=134
16B-/LL	4b-\)	.
16f/	.	.
16en/	.	.
16f/JJ	.	.
16g/LL	4r	.
16f/	.	.
16e/	.	.
16f/JJ	.	.
16e-/LL	2r	.
16f/	.	.
16d/	.	.
16f/JJ	.	.
16c/LL	.	.
16f/	.	.
16B-/	.	.
16f/JJ	.	.
=135	=135	=135
16A/LL	(8ee-\L	.
16f/	.	.
16c/	8cc\)	.
16f/JJ	.	.
16e-/LL	8a'\	.
16f/	.	.
16e-/	8a'\J	.
16f/JJ	.	.
16A/LL	(8ee-\L	.
16f/	.	.
16c/	8cc\)	.
16f/JJ	.	.
16e-/LL	8a\	.
16f/	.	.
16e-/	8a\J	.
16f/JJ	.	.
=136	=136	=136
16d/LL	8b-'\L	.
16f/	.	.
16A/	8cc'\	.
16f/JJ	.	.
16B-/LL	8dd'\	.
16f/	.	.
16c/	8ee-'\J	.
16f/JJ	.	.
16c#/LL	(8een\L	.
16f/	.	.
16d/	8ff\)	.
16f/JJ	.	.
16c#/LL	(8ee\	.
16f/	.	.
16d/	8ff\J)	.
16f/JJ	.	.
=137	=137	=137
16A/LL	8ee-\ (8eee-\L	.
16f/	.	.
16cn/	8cc\ 8ccc\)	.
16f/JJ	.	.
16e-/LL	8a'\ 8aa'\	.
16f/	.	.
16e-/	8a'\ 8aa'\J	.
16f/JJ	.	.
16A/LL	8ee-\ (8eee-\L	.
16f/	.	.
16c/	8cc\ 8ccc\)	.
16f/JJ	.	.
16e-/LL	8a'\ 8aa'\	.
16f/	.	.
16e-/	8a'\ 8aa'\J	.
16f/JJ	.	.
=138	=138	=138
16d/LL	8b-'\ 8bb-'\L	.
16f/	.	.
16A/	8cc'\ 8ccc'\	.
16f/JJ	.	.
16B-/LL	8dd'\ 8ddd'\	.
16f/	.	.
16c/	8ee-'\ 8eee-'\J	.
16f/JJ	.	.
16c#/LL	8een\ (8eeen\L	.
16f/	.	.
16d/	8ff\ 8fff\)	.
16f/JJ	.	.
16c#/LL	8ee\ (8eee\	.
16f/	.	.
16d/	8ff\ 8fff\J)	.
16f/JJ	.	.
*clefF4	*	*
=139	=139	=139
8r	2g\ 2gg\	p
(8E-\L	.	.
8D\	.	.
8E-\J)	.	.
8r	2A/ 2a/	.
(8F\L	.	.
8En\	.	.
8F\J)	.	.
=140	=140	=140
8r	2ee-\ 2eee-\	.
(8F#\L	.	.
8En\	.	.
8F#\J)	.	.
8r	2dd\ 2ddd\	.
(8G\L	.	.
8F#\	.	.
8G\J)	.	.
=141	=141	=141
*^	*	*
4r	4r	(16ddd\LL	.
.	.	16ccc\	.
.	.	16eee-\	.
.	.	16ddd\JJ	.
*clefG2	*clefG2	*	*
4cc/	4e-\	16fff\LL	.
.	.	16eee-\	.
.	.	16ddd\	.
.	.	16ccc\JJ	.
(4dd/	2f\	4bb-\	.
4ee-/)	.	4aa\)	.
*v	*v	*	*
=142	=142	=142
2b-\ 2dd\	8r	.
.	(8bb-\L	p
.	8aa\	.
.	8bb-\J)	.
2b-\ 2dd\	8r	.
.	(8aa-\L	.
.	8gg\	.
.	8aa-\J)	.
=143	=143	=143
2bn\ 2dd\ 2ff\	8r	.
.	(8gg\L	.
.	8ff#\	.
.	(8gg\J)	.
2cc\ 2ee-\	8r	.
.	8gg\L	.
.	8eee-\)	.
.	8eee-'\J	.
=144	=144	=144
2a\ 2cc\ 2ee-\	8r	.
.	(8eee-\L	.
.	8ffn\)	.
.	8ff'\J	.
2b-\ 2dd\	8r	.
.	(8ff\L	.
.	8ddd\)	.
.	8ddd'\J	.
=145	=145	=145
2g\ 2b-\ 2dd\	8r	.
.	(8ddd\L	.
.	8ee-\)	.
.	8ee-'\J	.
2a\ 2cc\	8r	.
.	(8ee-\L	.
.	8ccc\)	.
.	8ccc'\J	.
=146	=146	=146
2f#/ 2a/ 2cc/	8r	.
.	(8ccc\L	.
.	8dd\)	.
.	8dd'\J	.
2g\ 2b-\	8r	.
.	8dd\L	.
.	8bb-\	.
.	8bb-'\J	.
=147	=147	=147
8r	(8bb-\L	.
8en/ 8b-/L	8cc\J)	.
8e/ 8b-/	4r	.
8e/ 8b-/J	.	.
8r	(8bb-\L	.
8fn/ 8b-/L	8dd\J)	.
8f/ 8b-/	4r	.
8f/ 8b-/J	.	.
=148	=148	=148
8r	(8bb-\L	<
8g/ 8b-/L	8ee-\J)	.
8g/ 8b-/	4r	.
8g/ 8b-/J	.	.
8r	(8bb-\L	.
8g-/ 8b-/L	8een\J)	.
8g-/ 8b-/	4r	.
8g-/ 8b-/J	.	.
=149	=149	=149
4f/ 4b-/	(8bb-\L	f
.	8ff\	.
4d/ 4b-/	(8bb-\)	.
.	8ff#\J)	.
4e-/ 4b-/	(8bb-\L	.
.	8gg\)	.
4c/ 4fn/	(8eee-\	.
.	8aa\J)	.
=150	=150	=150
4B-/ 4f/	(8ddd\L	p
.	8fff\)	.
*clefF4	*	*
4D\ 4F\	(8bb-\	.
.	8ddd\J)	.
4E-\ 4B-\	(8gg\L	.
.	8bb-\)	.
4E-\ 4G\	(8cc\	.
.	8ee-\J)	.
=151	=151	=151
*^	*	*
4r	4r	16f'\LL	.
.	.	(16ff\	.
.	.	16gg\	.
.	.	16ff\JJ	.
2B-/	4D\	16ee-\LL	.
.	.	16dd\	.
.	.	16cc\	.
.	.	16b-\JJ)	.
.	4E-\	(2cc\	.
4A/	4F\	.	.
=152	=152	=152	=152
.	.	16b-q/LL	.
.	.	16ccq/JJ)	.
8B-/	8BB-\	8b-\	.
8r	8r	(16B-/LL	.
.	.	16d/JJ	.
8A/L	4r	16c/LL	.
.	.	16e-/	.
(8A-/J	.	16d/	.
.	.	16f/JJ	.
8G/)	8BB-\	8e-'/)	.
8r	8r	(16B-/LL	.
.	.	16d/JJ	.
(8An/L	4r	16c/LL	.
.	.	16e-/	.
8A-/J	.	16d/	.
.	.	16f/JJ	.
=153	=153	=153	=153
8G/)	8BB-\	8e-'/)	.
8r	8r	(16B-/LL	.
.	.	16d/JJ	.
2.r	(8An\L	16c/LL	.
.	.	16e-/	.
.	8A-\J	16d/	.
.	.	16f/JJ	.
.	8G\L)	16e-/LL	.
.	.	16g/	.
.	8D\	16f/	.
.	.	16a-/JJ	.
.	8E-\	16g/LL	.
.	.	16b-/	.
.	8C\J	16an/	.
.	.	16cc/JJ)	.
*v	*v	*	*
=154	=154	=154
4D\	(16b-\LL	.
.	16cc\	.
.	16dd\	.
.	16cc\JJ	.
4r	16b-/LL	.
.	16a-/	.
.	16g/	.
.	16f#/JJ	.
4E-\	16g\LL	.
.	16cc\	.
.	16ee-\	.
.	16dd\JJ	.
4r	16cc\LL	.
.	16b-\	.
.	16an\	.
.	16g\JJ	.
=155	=155	=155
(8F\L	16fn\LL	.
.	16b-\	.
8B-\	16dd\	.
.	16ff\JJ	.
8d\	8bb-\)	.
8B-\J	8b-\ 8dd\	.
8F\L	8dd\ (8ff\L	.
8c\	8cc\ 8ee-\)	.
8e-\	8b-'\ 8dd'\	.
8c\J)	8a'\ 8cc'\J	.
=156	=156	=156
*^	*	*
8B-\ 8d\	2r	8b-\	.
8r	.	(16b-\LL	.
.	.	16dd\JJ	.
*clefG2	*clefG2	*	*
(8a/L	.	16cc\LL	.
.	.	16ee-\	.
8a-/J	.	16dd\	.
.	.	16ff\JJ	.
8g/	8B-\	8ee-'\)	.
(8b-/L)	8r	(16bb-\LL	.
.	.	16ddd\JJ	.
8an/	4r	16ccc\LL	.
.	.	16eee-\	.
8a-/J	.	16ddd\	.
.	.	16fff\JJ	.
=157	=157	=157	=157
8g/)	8B-\	8eee-'\)	.
8r	8r	(16b-\LL	.
.	.	16dd\JJ	.
(8an/L	2.r	16cc\LL	.
.	.	16ee-\	.
8a-/J	.	16dd\	.
.	.	16ff\JJ	.
8g/L)	.	16ee-\LL	.
.	.	16b-\	.
8d/	.	16ff\	.
.	.	16b-\JJ	.
8e-/	.	16gg\LL	.
.	.	16b-\	.
8c/J	.	16aan\	.
.	.	16b-\JJ)	.
*v	*v	*	*
*clefF4	*	*
=158	=158	=158
4D\ 4d\	(16bb-\LL	.
.	16ccc\	.
.	16ddd\	.
.	16ccc\JJ	.
4r	16bb-\LL	.
.	16aa-\	.
.	16gg\	.
.	16ff#\JJ	.
4E-\ 4e-\	16gg\LL	.
.	16ffn\	.
.	16ee-\	.
.	16dd\JJ	.
4r	16cc/LL	.
.	16b-/	.
.	16an/	.
.	16g/JJ)	.
=159	=159	=159
(16F\LL	8f/L	.
16d\	.	.
16B-\	8ddd\	.
16d\JJ	.	.
16F\LL	8ddd\	.
16d\	.	.
16B-\	8ddd\J	.
16d\JJ	.	.
16F\LL	(16ddd\LL	.
16d\	16bb-\	.
16B-\	16ff\	.
16d\JJ	16dd\JJ	.
16F\LL	16bb-\LL	.
16d\	16ff\	.
16B-\	16dd\	.
16d\JJ	16b-\JJ)	.
=160	=160	=160
16F\LL	1cc	.
16e-\	.	.
16A\	.	.
16e-\JJ	.	.
16F\LL	.	.
16e-\	.	.
16A\	.	.
16e-\JJ	.	.
16F\LL	.	.
16e-\	.	.
16A\	.	.
16e-\JJ	.	.
16F\LL	.	.
16e-\	.	.
16A\	.	.
16e-\JJ	.	.
=161	=161	=161
.	(16b-q/LL	.
.	16ccq/JJ)	.
8B-\)	8b-\L	.
*clefG2	*	*
8b-/L	8bb-\J	.
(8a/	8r	.
8b-/J	(8bb-\	.
8cc/L	8aa\L	.
8b-/	8bb-\	.
8a/	8ccc\	.
8a-/J)	8ddd\J	.
=162	=162	=162
(8g/L	16eee-\LL	.
.	16ddd\	.
8B-/	16eee-\	.
.	16ddd\JJ	.
8g-/	16eee-\LL	.
.	16ddd-\	.
8B-/J	16ccc\	.
.	16bb-\JJ	.
8f/L	16aa\LL	.
.	16bb-\	.
8B-/	16ccc\	.
.	16bb-\JJ	.
8an/	16aa\LL	.
.	16gg\	.
8B-/J	16ff\	.
.	16ee-\JJ	.
=163	=163	=163
8b-'\)	8ddn'\L)	.
*clefF4	*	*
(8B-\L	8dd'\J	.
8A\	8r	.
8B-\J	(8b-\	.
8c\L	8a\L	.
8B-\	8b-\	.
8A\	8cc\	.
8A-\J	8dd\J	.
=164	=164	=164
4G\)	8ee-\L	.
.	(8ee-\)	.
.	16ddq/LL	.
.	16ee-q/JJ	.
4E-\	8ff\	.
.	8gg\J)	.
4F\	8ee-\ (8gg\L	.
.	8dd\ 8ff\J)	.
4F\	8r	.
.	8e-/ 8a/	.
=165	=165	=165
4B-\	(2e-/ 2cc/	.
4F\	.	.
4BB-/	4d/) 4b-/	.
==:|!	==:|!	==:|!
*-	*-	*-
!!!SMS: Alte Mozart-Ausgabe, Band 20, Breitkopf &amp; H&auml;rtel 1877-1883.
!!!ONB: Stich und Druck von Breitkopf &amp; H&auml;rtel in Leipzig
!!!ONB: Ausgegeben 1878
!!!ENC: Craig Stuart Sapp
!!!END: 2009/10/09/
!!!title: @{OTL}, K 333 (315c), @{OMV}
!!!hum2abc: --no-tempo -s 0.65 --spacing 2.0 -p "%gracespace  0 6.0 12.0"
